X:117
T: Tuhy's Frolic
N: O'Farrell's Pocket Companion v.2 (Sky ed. p.64-5)
N: "Irish"
M: 6/8
R: jig
L: 1/8
Q: 320
K: D
A|dcd AGF|DED AGF|dcd AGF|EFA B2c|
dfd AGF|DED AGF|G3 FAd|EFA B2 :|
P:2
c|d2e fdB|Bcd ecA|dfe fdB|ecA B2c|
dfe fdB|Bcd ecA|dcB AGF|EFA B2 :|
P:3
c|dDD ADD|BDD AGF|dDD AGF|EFA B2c|
dDD ADD|BDD AGF|G3 FAd|EFA B2 :|
P:4
d|f/g/af fdB|efe ecA|f/g/af fdB|ecA B2c|
dfa fdB|Bcd edc|dcB AGF|EFA B2 :|
